Numix-GalliumOS/48/actions/package-installed-locked.svg

<?xml version="1.0" encoding="UTF-8" standalone="no"?>
<svg
   xmlns:dc="http://purl.org/dc/elements/1.1/"
   xmlns:cc="http://creativecommons.org/ns#"
   xmlns:rdf="http://www.w3.org/1999/02/22-rdf-syntax-ns#"
   xmlns:svg="http://www.w3.org/2000/svg"
   xmlns="http://www.w3.org/2000/svg"
   xmlns:sodipodi="http://sodipodi.sourceforge.net/DTD/sodipodi-0.dtd"
   xmlns:inkscape="http://www.inkscape.org/namespaces/inkscape"
   width="48"
   height="48"
   viewBox="0 0 48 48"
   id="svg2"
   version="1.1"
   inkscape:version="0.91 r"
   sodipodi:docname="package-available-locked.svg">
  <metadata
     id="metadata18">
    <rdf:RDF>
      <cc:Work
         rdf:about="">
        <dc:format>image/svg+xml</dc:format>
        <dc:type
           rdf:resource="http://purl.org/dc/dcmitype/StillImage" />
      </cc:Work>
    </rdf:RDF>
  </metadata>
  <defs
     id="defs16" />
  <sodipodi:namedview
     pagecolor="#ffffff"
     bordercolor="#666666"
     borderopacity="1"
     objecttolerance="10"
     gridtolerance="10"
     guidetolerance="10"
     inkscape:pageopacity="0"
     inkscape:pageshadow="2"
     inkscape:window-width="1366"
     inkscape:window-height="747"
     id="namedview14"
     showgrid="true"
     inkscape:zoom="3.4766083"
     inkscape:cx="2.8633186"
     inkscape:cy="14.405563"
     inkscape:window-x="0"
     inkscape:window-y="21"
     inkscape:window-maximized="1"
     inkscape:current-layer="svg2">
    <inkscape:grid
       type="xygrid"
       id="grid3028" />
  </sodipodi:namedview>
  <path
     style="fill:#c19553"
     d="M 6.285156 4 C 5.144531 4 4 5.144531 4 6.285156 L 4 41.777344 C 4 42.855469 5.144531 44 6.222656 44 L 41.777344 44 C 42.859375 44 44 42.855469 44 41.777344 L 44 6.222656 C 44 5.144531 42.859375 4 41.777344 4 Z "
     id="path4" />
  <g
     style="fill:#fff"
     id="g6">
    <path
       style="fill-opacity:.196"
       d="M 6.285156 4 C 5.144531 4 4 5.144531 4 6.285156 L 4 18 C 8.445312 18 39.554688 18 44 18 L 44 6.222656 C 44 5.144531 42.859375 4 41.777344 4 Z "
       id="path8" />
    <path
       style="fill-opacity:.392"
       d="M 20 8 L 20 26 L 28 26 L 28 8 Z "
       id="path10" />
  </g>
  <g
     id="g4153"
     transform="matrix(0.475,0,0,0.54285714,25.1,22.114286)">
    <path
       id="path4143"
       d="m 24,4 c 6,0 14,0 14,10 l 0,6 c 2,0 6,-0.0039 6,4 l 0,16 c 0,4 -3.84375,4 -6,4 L 10,44 C 7.84375,44 4,44 4,40 L 4,24 c 0,-4.003906 4,-4 6,-4 l 0,-6 C 10,4 18,4 24,4 Z m 0,6 c -2,0 -8,0 -8,6 l 0,4 16,0 0,-4 c 0,-6 -6,-6 -8,-6 z"
       style="fill:#859900"
       inkscape:connector-curvature="0" />
    <path
       id="path4145"
       d="m 24,28 c -2.210938,0 -4,1.789062 -4,4 0,1.480469 0.804688,2.746094 2,3.4375 L 22,42 l 4,0 0,-6.5625 C 27.195312,34.746094 28,33.480469 28,32 28,29.789062 26.210938,28 24,28 Z"
       style="fill:#000000;fill-opacity:0.10199998"
       inkscape:connector-curvature="0" />
  </g>
</svg>

<svg xmlns="http://www.w3.org/2000/svg" viewBox="0 0 48 48">
 <path d="m 6.285 4 c -1.141 0 -2.285 1.145 -2.285 2.285 l 0 35.492 c 0 1.078 1.145 2.223 2.223 2.223 l 35.555 0 c 1.082 0 2.223 -1.145 2.223 -2.223 l 0 -35.555 c 0 -1.078 -1.141 -2.223 -2.223 -2.223 Z" style="fill:#c19553"/>
 <g style="fill:#fff">
  <path d="m 6.285 4 c -1.141 0 -2.285 1.145 -2.285 2.285 l 0 11.715 c 4.445 0 35.555 0 40 0 l 0 -11.777 c 0 -1.078 -1.141 -2.223 -2.223 -2.223 Z" style="fill-opacity:0.196"/>
  <path d="m 20 8 l 0 18 l 8 0 l 0 -18 Z" style="fill-opacity:0.392"/>
 </g>
 <g transform="matrix(0.475,0,0,0.54285714,25.1,22.114286)">
  <path d="m 24 4 c 6 0 14 0 14 10 l 0 6 c 2 0 6 -0.004 6 4 l 0 16 c 0 4 -3.844 4 -6 4 l -28 0 c -2.156 0 -6 0 -6 -4 l 0 -16 c 0 -4 4 -4 6 -4 l 0 -6 c 0 -10 8 -10 14 -10 m 0 6 c -2 0 -8 0 -8 6 l 0 4 16 0 0 -4 c 0 -6 -6 -6 -8 -6 z" style="fill:#859900"/>
  <path d="m 24 28 c -2.211 0 -4 1.789 -4 4 0 1.48 0.805 2.746 2 3.438 l 0 6.563 l 4 0 0 -6.563 c 1.195 -0.691 2 -1.957 2 -3.438 0 -2.211 -1.789 -4 -4 -4" style="fill:#000;fill-opacity:0.102"/>
 </g>
</svg>
